src/Images/location-dot.svg

<?xml version="1.0" encoding="utf-8"?>
<!-- Generator: Adobe Illustrator 27.3.1, SVG Export Plug-In . SVG Version: 6.00 Build 0)  -->
<svg version="1.1" id="Layer_1" xmlns="http://www.w3.org/2000/svg" xmlns:xlink="http://www.w3.org/1999/xlink" x="0px" y="0px"
	 viewBox="0 0 384 512" style="enable-background:new 0 0 384 512;" xml:space="preserve">
<style type="text/css">
	.st0{fill:url(#SVGID_1_);}
</style>
<linearGradient id="SVGID_1_" gradientUnits="userSpaceOnUse" x1="0" y1="255.3375" x2="384" y2="255.3375">
	<stop  offset="0" style="stop-color:#CC98DA"/>
	<stop  offset="1" style="stop-color:#5B6CF9"/>
</linearGradient>
<path class="st0" d="M272,192c0,44.2-35.8,80-80,80s-80-35.8-80-80s35.8-80,80-80S272,147.8,272,192z M192,240c26.5,0,48-21.5,48-48
	s-21.5-48-48-48s-48,21.5-48,48S165.5,240,192,240z M384,192c0,87.4-117,243-168.3,307.2c-12.3,15.3-35.1,15.3-47.4,0
	C116.1,435,0,279.4,0,192C0,86,86,0,192,0C298,0,384,86,384,192L384,192z M192,32c-88.4,0-160,71.6-160,160c0,15.6,5.4,37,16.6,63.4
	c10.9,25.9,26.2,54,43.6,82.1c34.1,55.3,74.5,108.2,99.9,140.1c25.4-31.9,65.8-84.8,99.9-140.1c17.3-28.1,32.6-56.2,43.5-82.1
	C346.6,229,352,207.6,352,192C352,103.6,280.4,32,192,32z"/>
</svg>

<svg xmlns="http://www.w3.org/2000/svg" viewBox="0 0 384 512"><!--! Font Awesome Pro 6.3.0 by @fontawesome - https://fontawesome.com License - https://fontawesome.com/license (Commercial License) Copyright 2023 Fonticons, Inc. --><path d="M272 192C272 236.2 236.2 272 192 272C147.8 272 112 236.2 112 192C112 147.8 147.8 112 192 112C236.2 112 272 147.8 272 192zM192 240C218.5 240 240 218.5 240 192C240 165.5 218.5 144 192 144C165.5 144 144 165.5 144 192C144 218.5 165.5 240 192 240zM384 192C384 279.4 267 435 215.7 499.2C203.4 514.5 180.6 514.5 168.3 499.2C116.1 435 0 279.4 0 192C0 85.96 85.96 0 192 0C298 0 384 85.96 384 192H384zM192 32C103.6 32 32 103.6 32 192C32 207.6 37.43 229 48.56 255.4C59.47 281.3 74.8 309.4 92.14 337.5C126.2 392.8 166.6 445.7 192 477.6C217.4 445.7 257.8 392.8 291.9 337.5C309.2 309.4 324.5 281.3 335.4 255.4C346.6 229 352 207.6 352 192C352 103.6 280.4 32 192 32z"/></svg>
